Komodo/status/24/weather-clouds.svg

<?xml version="1.0" encoding="UTF-8" standalone="no"?>
<!-- Created with Inkscape (http://www.inkscape.org/) -->
<svg
   xmlns:svg="http://www.w3.org/2000/svg"
   xmlns="http://www.w3.org/2000/svg"
   version="1.0"
   width="24"
   height="24"
   id="svg3187">
  <defs
     id="defs3189" />
  <path
     d="M 16.454801,7.5452291 L 16.9497,7.050249 M 7.6159,7.6159291 L 7.0503,7.050249 M 5,11.999999 L 6,11.999999 M 18,11.999999 L 19,11.999999 M 12,5.9999992 L 12,4.9999991"
     id="path2476"
     style="opacity:0.6;fill:none;stroke:#3a3935;stroke-width:4;stroke-linecap:round;stroke-linejoin:miter;marker:none;stroke-miterlimit:4;stroke-dasharray:none;stroke-dashoffset:0;stroke-opacity:1;visibility:visible;display:inline;overflow:visible;enable-background:accumulate" />
  <path
     d="M 16.500033,11.999968 C 16.500033,9.514676 14.485314,7.4999492 12.000033,7.4999492 C 9.5147511,7.4999492 7.5000323,9.514676 7.5000323,11.999968 C 7.5000323,14.485259 9.5147511,16.499986 12.000033,16.499986 C 14.485314,16.499986 16.500033,14.485259 16.500033,11.999968 L 16.500033,11.999968 z M 14.024748,11.500126 C 12.877727,11.49033 11.825808,12.05134 11.245094,12.798941 C 10.220981,12.253943 8.7166471,12.72983 8.3344286,13.617558 C 8.0220592,14.036804 8.5724177,14.589612 7.8239175,14.755038 C 6.5426522,15.487066 6.1195964,16.951825 6.8734511,18.039866 C 7.477778,18.99026 8.8487585,19.571935 10.199807,19.492834 C 12.246472,19.487835 14.293777,19.50296 16.340031,19.485043 C 18.036664,19.410939 19.490043,18.220973 19.497409,16.897196 C 19.554153,15.845588 18.673015,14.843007 17.445861,14.430786 C 17.482826,13.084966 16.229871,11.70809 14.461059,11.523873 C 14.316574,11.508017 14.170658,11.500119 14.024748,11.500126 z"
     id="path3183"
     style="opacity:0.6;fill:none;fill-opacity:1;fill-rule:nonzero;stroke:#3a3935;stroke-width:1.00000024;stroke-linecap:round;stroke-linejoin:miter;marker:none;marker-start:none;marker-mid:none;marker-end:none;stroke-miterlimit:4;stroke-dasharray:none;stroke-dashoffset:0;stroke-opacity:1;visibility:visible;display:inline;overflow:visible;enable-background:accumulate" />
  <path
     d="M 16.454801,7.5452291 L 16.9497,7.050249 M 7.6159,7.6159291 L 7.0503,7.050249 M 5,11.999999 L 6,11.999999 M 18,11.999999 L 19,11.999999 M 12,5.9999992 L 12,4.9999991"
     id="path2492"
     style="fill:none;fill-opacity:1;stroke:#eae3d1;stroke-width:2;stroke-linecap:round;stroke-linejoin:miter;marker:none;stroke-miterlimit:4;stroke-dasharray:none;stroke-dashoffset:0;stroke-opacity:1;visibility:visible;display:inline;overflow:visible;enable-background:accumulate" />
  <path
     d="M 12,7.9999992 C 9.7908711,7.9999991 8,9.7908608 8,11.999999 C 8,12.32165 8.0533067,12.63782 8.125,12.937499 C 8.2512532,12.781954 8.3769525,12.645008 8.53125,12.531249 C 9.0374211,12.158064 9.6750457,11.968749 10.34375,11.968749 C 10.63699,11.968749 10.881546,12.112634 11.15625,12.187499 C 11.900192,11.477979 12.857704,10.968749 14,10.968749 C 14.703605,10.968749 15.356392,11.138606 15.9375,11.437499 C 15.663873,9.4949242 14.018047,7.9999992 12,7.9999992 z M 14,11.999999 C 12.873696,11.999999 11.908797,12.531259 11.395833,13.296874 C 11.106987,13.116671 10.738133,12.999999 10.333333,12.999999 C 9.4133334,12.999999 8.6666667,13.559999 8.6666666,14.249999 C 8.6666666,14.404962 8.7020064,14.550521 8.7708333,14.687498 C 7.7244948,15.038139 7,15.832014 7,16.749998 C 7,17.996498 8.338,18.999999 10,18.999999 L 16,18.999999 C 17.662,18.999999 19,17.996498 19,16.749998 C 19,15.762662 18.15418,14.929482 16.979166,14.624999 C 16.981776,14.582286 17,14.54325 17,14.499999 C 17,13.119999 15.656,11.999999 14,11.999999 z"
     id="path2876-6-6-4-0"
     style="fill:#eae3d1;fill-opacity:1;fill-rule:nonzero;stroke:none;stroke-width:11.49051189;stroke-linecap:round;stroke-linejoin:miter;marker:none;marker-start:none;marker-mid:none;marker-end:none;stroke-miterlimit:4;stroke-dasharray:none;stroke-dashoffset:0;stroke-opacity:1;visibility:visible;display:inline;overflow:visible;enable-background:accumulate" />
</svg>

<?xml version="1.0" encoding="UTF-8" standalone="no"?>
<!-- Created with Inkscape (http://www.inkscape.org/) -->
<svg id="svg3187" xmlns="http://www.w3.org/2000/svg" height="24" width="24" version="1.0">
 <path id="path2476" style="opacity:.6;stroke-width:4;stroke:#3a3935;stroke-linecap:round;fill:none" d="m16.455 7.5452l0.495-0.495m-9.3341 0.5657l-0.5656-0.5657m-2.0503 4.9498h1m12 0h1m-7-6v-1"/>
 <path id="path3183" style="opacity:.6;stroke:#3a3935;stroke-linecap:round;fill:none" d="m16.5 12c0-2.4853-2.015-4.5001-4.5-4.5001-2.4852 0-4.5 2.0148-4.5 4.5001 0 2.485 2.0148 4.5 4.5 4.5 2.485 0 4.5-2.015 4.5-4.5zm-2.475-0.5c-1.147-0.01-2.199 0.551-2.78 1.299-1.024-0.545-2.5284-0.069-2.9106 0.819-0.3123 0.419 0.238 0.972-0.5105 1.137-1.2812 0.732-1.7043 2.197-0.9504 3.285 0.6043 0.95 1.9753 1.532 3.3265 1.453 2.046-0.005 4.094 0.01 6.14-0.008 1.697-0.074 3.15-1.264 3.157-2.588 0.057-1.051-0.824-2.054-2.051-2.466 0.037-1.346-1.216-2.723-2.985-2.907-0.144-0.016-0.29-0.024-0.436-0.024z"/>
 <path id="path2492" style="stroke-width:2;stroke:#eae3d1;stroke-linecap:round;fill:none" d="m16.455 7.5452l0.495-0.495m-9.3341 0.5657l-0.5656-0.5657m-2.0503 4.9498h1m12 0h1m-7-6v-1"/>
 <path id="path2876-6-6-4-0" style="fill:#eae3d1" d="m12 8c-2.2091 0-4 1.7909-4 4 0 0.322 0.0533 0.638 0.125 0.937 0.1263-0.155 0.252-0.292 0.4062-0.406 0.5062-0.373 1.1438-0.562 1.8128-0.562 0.293 0 0.538 0.144 0.812 0.218 0.744-0.709 1.702-1.218 2.844-1.218 0.704 0 1.356 0.17 1.938 0.468-0.274-1.9421-1.92-3.437-3.938-3.437zm2 4c-1.126 0-2.091 0.531-2.604 1.297-0.289-0.18-0.658-0.297-1.063-0.297-0.9197 0-1.6663 0.56-1.6663 1.25 0 0.155 0.0353 0.301 0.1041 0.437-1.0463 0.351-1.7708 1.145-1.7708 2.063 0 1.246 1.338 2.25 3 2.25h6c1.662 0 3-1.004 3-2.25 0-0.987-0.846-1.821-2.021-2.125 0.003-0.043 0.021-0.082 0.021-0.125 0-1.38-1.344-2.5-3-2.5z"/>
</svg>
